icons-dark/actions/24/office-chart-line-percentage.svg

<?xml version="1.0" encoding="UTF-8" standalone="no"?>
<!-- Created with Inkscape (http://www.inkscape.org/) -->

<svg
   xmlns:dc="http://purl.org/dc/elements/1.1/"
   xmlns:cc="http://creativecommons.org/ns#"
   xmlns:rdf="http://www.w3.org/1999/02/22-rdf-syntax-ns#"
   xmlns:svg="http://www.w3.org/2000/svg"
   xmlns="http://www.w3.org/2000/svg"
   xmlns:xlink="http://www.w3.org/1999/xlink"
   xmlns:sodipodi="http://sodipodi.sourceforge.net/DTD/sodipodi-0.dtd"
   xmlns:inkscape="http://www.inkscape.org/namespaces/inkscape"
   width="24"
   height="24"
   id="svg3869"
   version="1.1"
   inkscape:version="0.91 r13725"
   sodipodi:docname="office-chart-line-percentage.svg">
  <defs
     id="defs3871">
    <clipPath
       id="clipPath4160"
       clipPathUnits="userSpaceOnUse">
      <rect
         y="1023.3622"
         x="7"
         height="1"
         width="1"
         id="rect4162"
         style="opacity:1;fill:#f2f2f2;fill-opacity:1;stroke:none;stroke-opacity:1" />
    </clipPath>
    <linearGradient
       gradientTransform="translate(0,-1.9999941)"
       inkscape:collect="always"
       xlink:href="#linearGradient4021-3"
       id="linearGradient4123"
       gradientUnits="userSpaceOnUse"
       x1="3"
       y1="1045.3622"
       x2="15"
       y2="1045.3622" />
    <linearGradient
       id="linearGradient4021-3">
      <stop
         id="stop4023-0"
         offset="0"
         style="stop-color:#b3b3b3;stop-opacity:1;" />
      <stop
         id="stop4025-2"
         offset="1"
         style="stop-color:#f2f2f2;stop-opacity:1;" />
    </linearGradient>
    <clipPath
       id="clipPath4160-8"
       clipPathUnits="userSpaceOnUse">
      <rect
         y="1023.3622"
         x="7"
         height="1"
         width="1"
         id="rect4162-9"
         style="opacity:1;fill:#f2f2f2;fill-opacity:1;stroke:none;stroke-opacity:1" />
    </clipPath>
  </defs>
  <sodipodi:namedview
     id="base"
     pagecolor="#ffffff"
     bordercolor="#666666"
     borderopacity="1.0"
     inkscape:pageopacity="0.0"
     inkscape:pageshadow="2"
     inkscape:zoom="22.627416"
     inkscape:cx="5.4926209"
     inkscape:cy="10.264796"
     inkscape:document-units="px"
     inkscape:current-layer="layer1"
     showgrid="true"
     fit-margin-top="0"
     fit-margin-left="0"
     fit-margin-right="0"
     fit-margin-bottom="0"
     inkscape:window-width="1366"
     inkscape:window-height="709"
     inkscape:window-x="-4"
     inkscape:window-y="0"
     inkscape:window-maximized="1"
     inkscape:showpageshadow="false"
     inkscape:snap-bbox="true"
     inkscape:object-nodes="true">
    <inkscape:grid
       type="xygrid"
       id="grid4132" />
    <sodipodi:guide
       position="4,18"
       orientation="18,0"
       id="guide4138" />
    <sodipodi:guide
       position="5,3"
       orientation="0,18"
       id="guide4140" />
    <sodipodi:guide
       position="20,2.0000174"
       orientation="-18,0"
       id="guide4142" />
    <sodipodi:guide
       position="2,21"
       orientation="0,-18"
       id="guide4144" />
    <sodipodi:guide
       position="3,19.000017"
       orientation="16,0"
       id="guide4146" />
    <sodipodi:guide
       position="2,4"
       orientation="0,16"
       id="guide4148" />
    <sodipodi:guide
       position="21,20"
       orientation="-16,0"
       id="guide4150" />
    <sodipodi:guide
       position="2,20"
       orientation="0,-16"
       id="guide4152" />
  </sodipodi:namedview>
  <metadata
     id="metadata3874">
    <rdf:RDF>
      <cc:Work
         rdf:about="">
        <dc:format>image/svg+xml</dc:format>
        <dc:type
           rdf:resource="http://purl.org/dc/dcmitype/StillImage" />
        <dc:title></dc:title>
      </cc:Work>
    </rdf:RDF>
  </metadata>
  <g
     inkscape:label="Capa 1"
     inkscape:groupmode="layer"
     id="layer1"
     transform="translate(-326,-532.3622)">
    <g
       transform="translate(-224.28571,-74.28568)"
       id="layer1-5"
       inkscape:label="Capa 1">
      <path
         sodipodi:nodetypes="cccccccccccccccccccccccccccccccccccccccccccccccccccccccccccccccccccccccccc"
         inkscape:connector-curvature="0"
         id="rect4144"
         transform="translate(551.28571,607.64788)"
         d="M 4,3 4,6.9921875 4,8 l 0,7 0,1 0,1 -1,0 0,1 1,0 0,1 1,0 0,-1 14,0 0,-1 L 5,17 5,16 5.00781,16 6,16 8,16 8,15.9922 8.00781,16 l 1.999999,-2 1.591797,0 2,2 3.5,0 L 19,16 l 0,-1 -1.900391,0 -3.085937,0 -2,-2 L 12,13 l -0.992188,0 -0.408203,0 -1.005859,0 -2,2 L 6,15 5.0078125,15 5,15 5,12 5,11 5,10 5,8 5.0078125,8 6,8 l 1.5878906,0 1.7070313,1.7070312 0.8281251,0.8281248 2,2 0.002,-0.002 0.002,0.002 2.126953,-2.125 1.296875,1.296875 0.828125,0.828125 1.041016,1.041016 0.707031,-0.707031 L 17.085938,11.828125 16.257812,11 l -2,-2 -0.0039,0.00391 L 14.248047,9 12.125,11.123047 10.830078,9.828125 10.001953,9 8.0019531,7 8,7 6,7 6,6.99219 l -1,0 L 5,6 12,6 12,5 5,5 5,3 Z"
         style="opacity:1;fill:#f2f2f2;fill-opacity:1;stroke:none;stroke-width:2.79999995;stroke-miterlimit:4;stroke-dasharray:none;stroke-opacity:0.55026455" />
      <path
         id="rect3374"
         d="m 563.28571,610.64788 0,1 1,0 0,3 1,0 0,-4 -1,0 -1,0 z m 4.5,0 c -0.831,0 -1.5,0.669 -1.5,1.5 l 0,1 c 0,0.831 0.669,1.5 1.5,1.5 0.831,0 1.5,-0.669 1.5,-1.5 l 0,-1 c 0,-0.831 -0.669,-1.5 -1.5,-1.5 z m 4,0 c -0.831,0 -1.5,0.669 -1.5,1.5 l 0,1 c 0,0.831 0.669,1.5 1.5,1.5 0.831,0 1.5,-0.669 1.5,-1.5 l 0,-1 c 0,-0.831 -0.669,-1.5 -1.5,-1.5 z m -4,1 c 0.277,0 0.5,0.223 0.5,0.5 l 0,1 c 0,0.277 -0.223,0.5 -0.5,0.5 -0.277,0 -0.5,-0.223 -0.5,-0.5 l 0,-1 c 0,-0.277 0.223,-0.5 0.5,-0.5 z m 4,0 c 0.277,0 0.5,0.223 0.5,0.5 l 0,1 c 0,0.277 -0.223,0.5 -0.5,0.5 -0.277,0 -0.5,-0.223 -0.5,-0.5 l 0,-1 c 0,-0.277 0.223,-0.5 0.5,-0.5 z"
         style="fill:#f2f2f2;fill-opacity:1;stroke:none"
         inkscape:connector-curvature="0" />
    </g>
  </g>
</svg>

<svg xmlns="http://www.w3.org/2000/svg" viewBox="0 0 24 24">
  <defs id="defs3051">
    <style type="text/css" id="current-color-scheme">
      .ColorScheme-Text {
        color:#f2f2f2
      }
      .ColorScheme-Highlight {
        color:#3daee9;
      }
      </style>
  </defs>
  <a transform="translate(1,1)">
 <path 
     style="fill:currentColor;fill-opacity:1;stroke:none" 
     d="M 4 3 L 4 6.9921875 L 4 8 L 4 15 L 4 16 L 4 17 L 3 17 L 3 18 L 4 18 L 4 19 L 5 19 L 5 18 L 19 18 L 19 17 L 5 17 L 5 16 L 5.0078125 16 L 6 16 L 8 16 L 8 15.992188 L 8.0078125 16 L 10.007812 14 L 11.599609 14 L 13.599609 16 L 17.099609 16 L 19 16 L 19 15 L 17.099609 15 L 14.013672 15 L 12.013672 13 L 12 13 L 11.007812 13 L 10.599609 13 L 9.59375 13 L 7.59375 15 L 6 15 L 5.0078125 15 L 5 15 L 5 12 L 5 11 L 5 10 L 5 8 L 5.0078125 8 L 6 8 L 7.5878906 8 L 9.2949219 9.7070312 L 10.123047 10.535156 L 12.123047 12.535156 L 12.125 12.533203 L 12.126953 12.535156 L 14.253906 10.410156 L 15.550781 11.707031 L 16.378906 12.535156 L 17.419922 13.576172 L 18.126953 12.869141 L 17.085938 11.828125 L 16.257812 11 L 14.257812 9 L 14.253906 9.0039062 L 14.248047 9 L 12.125 11.123047 L 10.830078 9.828125 L 10.001953 9 L 8.0019531 7 L 8 7 L 6 7 L 6 6.9921875 L 5 6.9921875 L 5 6 L 12 6 L 12 5 L 5 5 L 5 3 L 4 3 z M 12 3 L 12 4 L 13 4 L 13 7 L 14 7 L 14 3 L 13 3 L 12 3 z M 16.5 3 C 15.669 3 15 3.669 15 4.5 L 15 5.5 C 15 6.331 15.669 7 16.5 7 C 17.331 7 18 6.331 18 5.5 L 18 4.5 C 18 3.669 17.331 3 16.5 3 z M 20.5 3 C 19.669 3 19 3.669 19 4.5 L 19 5.5 C 19 6.331 19.669 7 20.5 7 C 21.331 7 22 6.331 22 5.5 L 22 4.5 C 22 3.669 21.331 3 20.5 3 z M 16.5 4 C 16.777 4 17 4.223 17 4.5 L 17 5.5 C 17 5.777 16.777 6 16.5 6 C 16.223 6 16 5.777 16 5.5 L 16 4.5 C 16 4.223 16.223 4 16.5 4 z M 20.5 4 C 20.777 4 21 4.223 21 4.5 L 21 5.5 C 21 5.777 20.777 6 20.5 6 C 20.223 6 20 5.777 20 5.5 L 20 4.5 C 20 4.223 20.223 4 20.5 4 z "
     class="ColorScheme-Text"
     />
 </a>
</svg>
